src/assets/images/countries/FR.svg

<?xml version="1.0" encoding="UTF-8"?>
<svg width="95px" height="95px" viewBox="0 0 95 95" version="1.1" xmlns="http://www.w3.org/2000/svg" xmlns:xlink="http://www.w3.org/1999/xlink">
    <!-- Generator: Sketch 43.2 (39069) - http://www.bohemiancoding.com/sketch -->
    <title>FR</title>
    <desc>Created with Sketch.</desc>
    <defs></defs>
    <g id="Map-countries" stroke="none" stroke-width="1" fill="none" fill-rule="evenodd">
        <g id="Artboard" transform="translate(-1284.000000, -855.000000)" stroke="#FFFFFF" stroke-width="0.5" fill="#B1B2B3">
            <path d="M1378.33544,942.482304 L1376.13976,949.305545 L1373.14137,947.511198 L1371.60675,941.537911 L1372.95249,938.208925 L1377.2258,934.785499 L1378.33544,942.482304 L1378.33544,942.482304 Z M1338.78963,863.743518 L1343.41708,868.607143 L1346.81684,867.804409 L1352.60115,872.455545 L1354.08855,873.329109 L1356.00091,873.116621 L1359.11736,875.760922 L1368.65557,877.626098 L1365.30303,884.472949 L1364.45309,891.508679 L1362.63517,893.184977 L1359.61316,892.287803 L1359.82564,894.766836 L1354.98571,900.197097 L1354.89127,904.541306 L1358.05493,903.053886 L1360.32144,907.232826 L1360.03813,909.900737 L1361.99771,913.442212 L1359.70759,916.299002 L1361.40747,923.47639 L1364.99611,924.633272 L1364.24061,928.599724 L1358.24381,933.723057 L1345.18779,931.267634 L1335.55514,934.195253 L1334.79964,939.601905 L1327.12657,940.758786 L1319.6896,936.697896 L1317.28143,938.633902 L1305.09896,934.549401 L1302.45471,931.031536 L1305.87808,925.554055 L1307.12938,906.949508 L1300.30625,896.89172 L1295.4191,891.957266 L1285.29065,888.179693 L1284.62958,880.931475 L1293.22342,878.75937 L1304.34346,881.332842 L1302.24222,869.905684 L1308.49872,874.273502 L1323.91569,866.316989 L1325.89888,857.79384 L1331.68319,855.668955 L1332.65118,859.352089 L1335.72041,859.517358 L1338.78963,863.743518 L1338.78963,863.743518 Z" id="FR"></path>
        </g>
    </g>
</svg>

<?xml version="1.0" encoding="utf-8"?>
<!-- Generator: Adobe Illustrator 21.1.0, SVG Export Plug-In . SVG Version: 6.00 Build 0)  -->
<svg version="1.1" id="Layer_1" xmlns="http://www.w3.org/2000/svg" xmlns:xlink="http://www.w3.org/1999/xlink" x="0px" y="0px"
	 viewBox="0 0 95 95" style="enable-background:new 0 0 95 95;" xml:space="preserve">
<style type="text/css">
	.st0{fill:#B1B2B3;stroke:#FFFFFF;stroke-width:0.5;}
</style>
<title>FR</title>
<desc>Created with Sketch.</desc>
<g id="Map-countries">
	<g id="Artboard" transform="translate(-1284.000000, -855.000000)">
		<path id="FR" class="st0" d="M1378.3,942.5l-2.2,6.8l-3-1.8l-1.5-6l1.3-3.3l4.3-3.4L1378.3,942.5L1378.3,942.5z M1338.8,863.7
			l4.6,4.9l3.4-0.8l5.8,4.7l1.5,0.9l1.9-0.2l3.1,2.6l9.5,1.9l-3.4,6.8l-0.8,7l-1.8,1.7l-3-0.9l0.2,2.5l-4.8,5.4l-0.1,4.3l3.2-1.5
			l2.3,4.2l-0.3,2.7l2,3.5l-2.3,2.9l1.7,7.2l3.6,1.2l-0.8,4l-6,5.1l-13.1-2.5l-9.6,2.9l-0.8,5.4l-7.7,1.2l-7.4-4.1l-2.4,1.9
			l-12.2-4.1l-2.6-3.5l3.4-5.5l1.3-18.6l-6.8-10.1l-4.9-4.9l-10.1-3.8l-0.7-7.2l8.6-2.2l11.1,2.6l-2.1-11.4l6.3,4.4l15.4-8l2-8.5
			l5.8-2.1l1,3.7l3.1,0.2L1338.8,863.7L1338.8,863.7z"/>
	</g>
</g>
</svg>
